X:376
T: Mouth of the Jug[g]
N: O'Farrell's Pocket Companion v.4 (Sky ed. p.162)
N: "Irish"
M: 6/8
L: 1/8
Q: 320
R: jig
K: D
B|: A2D AFD| DFD AFD| A2d AFD| E2F G2E|
A2D AFD| DFD AFD| d2B AGF| E2F G2E :|
P:2
FEF DED| AFD FED| FEF DFD| E2F G2E|
FEF DFD| AFD FED| d2B AGF| E2F G2E :|
P:3
d3 ede| fdB BAF| d3 ede| fdB B2A|
d3 ede| fdB BAF| d2B AGF| E2F G2E :|
